assets/svgs/shopping-color/ShoppingColor2.svg

<svg xmlns="http://www.w3.org/2000/svg" data-name="Layer 3" viewBox="0 0 128 128"><path fill="#ff4948" d="M96.289 81.623l4.981-33a6.4 6.4 0 00-6.511-7.567H45.777a6.4 6.4 0 00-6.511 7.567l4.981 33z"/><path fill="#ff6969" d="M51 41.061h-5.223a6.4 6.4 0 00-6.511 7.567l4.981 33h5.226l-4.981-33A6.4 6.4 0 0151 41.061z"/><path fill="#231f20" d="M100.989 42.285a8.06 8.06 0 00-6.23-2.755H45.777a8.06 8.06 0 00-6.23 2.755c-.119.139-.223.286-.332.432L35.8 25.834a1.531 1.531 0 00-1.5-1.227h-7.656a1.531 1.531 0 000 3.061h6.4l5.93 29.291 3.954 26.2h.043l1.108 6.017a1.53 1.53 0 001.505 1.253h49.557a1.531 1.531 0 000-3.061H46.86l-.775-4.209h51.521l5.177-34.3a8.06 8.06 0 00-1.794-6.574zm-55.211.306h48.98a5.044 5.044 0 013.91 1.691 4.764 4.764 0 011.073 2.464H40.795a4.765 4.765 0 011.073-2.464 5.044 5.044 0 013.909-1.69zm49.195 37.5H45.564l-4.572-30.284h58.552z"/><circle cx="51.006" cy="98.332" r="5.061" fill="#231f20"/><circle cx="90.08" cy="98.332" r="5.061" fill="#231f20"/><path fill="#231f20" d="M51.683 54.344a1.531 1.531 0 10-3 .616l4.075 19.848a1.531 1.531 0 001.5 1.223 1.506 1.506 0 00.309-.031 1.53 1.53 0 001.191-1.807zM60.054 52.986a1.53 1.53 0 00-1.354 1.691l2.259 20.136a1.53 1.53 0 001.519 1.36 1.492 1.492 0 00.173-.01A1.53 1.53 0 0064 74.473l-2.255-20.137a1.534 1.534 0 00-1.691-1.35zM90.388 53.152a1.524 1.524 0 00-1.807 1.192L84.5 74.191A1.53 1.53 0 0085.694 76a1.5 1.5 0 00.306.03 1.531 1.531 0 001.5-1.223l4.079-19.847a1.53 1.53 0 00-1.191-1.808zM80.208 52.986a1.537 1.537 0 00-1.691 1.351l-2.259 20.136a1.53 1.53 0 001.35 1.691 1.492 1.492 0 00.173.01 1.531 1.531 0 001.519-1.36l2.258-20.136a1.53 1.53 0 00-1.35-1.692zM70.268 52.976a1.531 1.531 0 00-1.531 1.531v20.136a1.531 1.531 0 003.061 0V54.507a1.531 1.531 0 00-1.53-1.531z"/></svg>

<svg id="Layer_3" data-name="Layer 3" xmlns="http://www.w3.org/2000/svg" viewBox="0 0 128 128"><title>Artboard 98</title><path d="M96.289,81.623l4.981-33a6.4,6.4,0,0,0-6.511-7.567H45.777a6.4,6.4,0,0,0-6.511,7.567l4.981,33Z" style="fill:#ff4948"/><path d="M51,41.061H45.777a6.4,6.4,0,0,0-6.511,7.567l4.981,33h5.226l-4.981-33A6.4,6.4,0,0,1,51,41.061Z" style="fill:#ff6969"/><path d="M100.989,42.285a8.06,8.06,0,0,0-6.23-2.755H45.777a8.06,8.06,0,0,0-6.23,2.755c-.119.139-.223.286-.332.432L35.8,25.834a1.531,1.531,0,0,0-1.5-1.227H26.644a1.531,1.531,0,0,0,0,3.061h6.4l5.93,29.291,3.954,26.2h.043l1.108,6.017a1.53,1.53,0,0,0,1.505,1.253H95.141a1.531,1.531,0,0,0,0-3.061H46.86l-.775-4.209H97.606l5.177-34.3A8.06,8.06,0,0,0,100.989,42.285Zm-55.211.306H94.758a5.044,5.044,0,0,1,3.91,1.691,4.764,4.764,0,0,1,1.073,2.464H40.795a4.765,4.765,0,0,1,1.073-2.464A5.044,5.044,0,0,1,45.777,42.592Zm49.195,37.5H45.564L40.992,49.807H99.544Z" style="fill:#231f20"/><circle cx="51.006" cy="98.332" r="5.061" style="fill:#231f20"/><circle cx="90.08" cy="98.332" r="5.061" style="fill:#231f20"/><path d="M51.683,54.344a1.531,1.531,0,1,0-3,.616l4.075,19.848a1.531,1.531,0,0,0,1.5,1.223A1.506,1.506,0,0,0,54.567,76a1.53,1.53,0,0,0,1.191-1.807Z" style="fill:#231f20"/><path d="M60.054,52.986A1.53,1.53,0,0,0,58.7,54.677l2.259,20.136a1.53,1.53,0,0,0,1.519,1.36,1.492,1.492,0,0,0,.173-.01A1.53,1.53,0,0,0,64,74.473L61.745,54.336A1.534,1.534,0,0,0,60.054,52.986Z" style="fill:#231f20"/><path d="M90.388,53.152a1.524,1.524,0,0,0-1.807,1.192L84.5,74.191A1.53,1.53,0,0,0,85.694,76,1.5,1.5,0,0,0,86,76.03a1.531,1.531,0,0,0,1.5-1.223L91.579,54.96A1.53,1.53,0,0,0,90.388,53.152Z" style="fill:#231f20"/><path d="M80.208,52.986a1.537,1.537,0,0,0-1.691,1.351L76.258,74.473a1.53,1.53,0,0,0,1.35,1.691,1.492,1.492,0,0,0,.173.01,1.531,1.531,0,0,0,1.519-1.36l2.258-20.136A1.53,1.53,0,0,0,80.208,52.986Z" style="fill:#231f20"/><path d="M70.268,52.976a1.531,1.531,0,0,0-1.531,1.531V74.643a1.531,1.531,0,0,0,3.061,0V54.507A1.531,1.531,0,0,0,70.268,52.976Z" style="fill:#231f20"/></svg>
